SVG_Azure_Grouped/Identity/Azure AD B2C.svg

<?xml version="1.0" encoding="UTF-8" standalone="no"?>
<!-- Generated by Microsoft Visio, SVG Export Azure AD B2C.svg Page-1 -->

<svg
   xmlns:dc="http://purl.org/dc/elements/1.1/"
   xmlns:cc="http://creativecommons.org/ns#"
   xmlns:rdf="http://www.w3.org/1999/02/22-rdf-syntax-ns#"
   xmlns:svg="http://www.w3.org/2000/svg"
   xmlns="http://www.w3.org/2000/svg"
   xmlns:sodipodi="http://sodipodi.sourceforge.net/DTD/sodipodi-0.dtd"
   xmlns:inkscape="http://www.inkscape.org/namespaces/inkscape"
   width="0.78744239in"
   height="0.74798238in"
   viewBox="0 0 56.69576 53.854872"
   xml:space="preserve"
   class="st9"
   version="1.1"
   id="svg70"
   sodipodi:docname="Azure AD B2C.svg"
   style="font-size:12px;overflow:visible;color-interpolation-filters:sRGB;fill:none;fill-rule:evenodd;stroke-linecap:square;stroke-miterlimit:3"
   inkscape:version="0.92.5 (2060ec1f9f, 2020-04-08)"><metadata
   id="metadata74"><rdf:RDF><cc:Work
       rdf:about=""><dc:format>image/svg+xml</dc:format><dc:type
         rdf:resource="http://purl.org/dc/dcmitype/StillImage" /></cc:Work></rdf:RDF></metadata><sodipodi:namedview
   pagecolor="#ffffff"
   bordercolor="#666666"
   borderopacity="1"
   objecttolerance="10"
   gridtolerance="10"
   guidetolerance="10"
   inkscape:pageopacity="0"
   inkscape:pageshadow="2"
   inkscape:window-width="640"
   inkscape:window-height="480"
   id="namedview72"
   showgrid="false"
   inkscape:zoom="1.4523234"
   inkscape:cx="37.795237"
   inkscape:cy="35.890004"
   inkscape:window-x="0"
   inkscape:window-y="0"
   inkscape:window-maximized="0"
   inkscape:current-layer="svg70" />
	<style
   type="text/css"
   id="style2">
	<![CDATA[
		.st1 {fill:#50e6ff;stroke:none;stroke-linecap:butt;stroke-width:34}
		.st2 {fill:#ffffff;stroke:none;stroke-linecap:butt;stroke-width:34}
		.st3 {fill:url(#grad0-12);stroke:none;stroke-linecap:butt;stroke-width:34}
		.st4 {fill:#53b1e0;stroke:none;stroke-linecap:butt;stroke-width:34}
		.st5 {fill:#9cebff;stroke:none;stroke-linecap:butt;stroke-width:34}
		.st6 {fill:#5ea0ef;stroke:none;stroke-linecap:butt;stroke-width:34}
		.st7 {fill:#a67af4;stroke:none;stroke-linecap:butt;stroke-width:34}
		.st8 {fill:#ffffff;fill-opacity:0.8;stroke:none;stroke-linecap:butt;stroke-width:34}
		.st9 {fill:none;fill-rule:evenodd;font-size:12px;overflow:visible;stroke-linecap:square;stroke-miterlimit:3}
	]]>
	</style>

	<defs
   id="Patterns_And_Gradients">
		<linearGradient
   id="grad0-12"
   x1="0"
   y1="57.989711"
   x2="31.90098"
   y2="57.989711"
   gradientTransform="scale(0.7375949,1.3557577)"
   gradientUnits="userSpaceOnUse">
			<stop
   offset="0"
   stop-color="#1988d9"
   stop-opacity="1"
   id="stop4" />
			<stop
   offset="0.9"
   stop-color="#54aef0"
   stop-opacity="1"
   id="stop6" />
		</linearGradient>
	</defs>
	<g
   id="g68"
   transform="translate(-34.000261,-33.9997)">
		<title
   id="title10">Page-1</title>
		<g
   id="group13595-1"
   transform="translate(34,-34.0157)">
			<title
   id="title12">Azure AD B2C.13595</title>
			<g
   id="group13596-2">
				<title
   id="title14">Icon-identity-228</title>
				<g
   id="shape13597-3"
   transform="translate(0,-1.189)">
					<title
   id="title16">path4</title>
					<path
   d="m 3.18,99.38 24.95,16.48 25.38,-16.54 3.18,3.76 L 28.13,121.87 0,103.11 Z"
   class="st1"
   id="path18"
   inkscape:connector-curvature="0"
   style="fill:#50e6ff;stroke:none;stroke-width:34;stroke-linecap:butt" />
				</g>
				<g
   id="shape13598-5"
   transform="translate(5.07087,-10.6046)">
					<title
   id="title21">path6</title>
					<path
   d="M 0,106.67 23.06,78.62 46.58,106.71 23.06,121.87 Z"
   class="st2"
   id="path23"
   inkscape:connector-curvature="0"
   style="fill:#ffffff;stroke:none;stroke-width:34;stroke-linecap:butt" />
				</g>
				<g
   id="shape13599-7"
   transform="translate(5.07087,-10.6046)">
					<title
   id="title26">path8</title>
					<path
   d="m 23.06,78.62 v 43.25 L 0,106.67 Z"
   class="st1"
   id="path28"
   inkscape:connector-curvature="0"
   style="fill:#50e6ff;stroke:none;stroke-width:34;stroke-linecap:butt" />
				</g>
				<g
   id="shape13600-9"
   transform="translate(28.126,-10.6046)">
					<title
   id="title31">path10</title>
					<path
   d="m 0,78.62 v 43.25 l 23.53,-15.16 z"
   class="st3"
   id="path33"
   inkscape:connector-curvature="0"
   style="fill:url(#grad0-12);stroke:none;stroke-width:34;stroke-linecap:butt" />
				</g>
				<g
   id="shape13601-13"
   transform="translate(28.126,-10.6046)">
					<title
   id="title36">path12</title>
					<path
   d="M 0,100.95 23.53,106.71 0,121.87 Z"
   class="st4"
   id="path38"
   inkscape:connector-curvature="0"
   style="fill:#53b1e0;stroke:none;stroke-width:34;stroke-linecap:butt" />
				</g>
				<g
   id="shape13602-15"
   transform="translate(5.07087,-10.6046)">
					<title
   id="title41">path14</title>
					<path
   d="M 23.06,121.87 0,106.67 23.06,100.95 Z"
   class="st5"
   id="path43"
   inkscape:connector-curvature="0"
   style="fill:#9cebff;stroke:none;stroke-width:34;stroke-linecap:butt" />
				</g>
				<g
   id="shape13603-17"
   transform="translate(28.126,-1.189)">
					<title
   id="title46">path16</title>
					<path
   d="M 0,121.87 28.57,103.08 25.39,99.32 0,115.86 Z"
   class="st6"
   id="path48"
   inkscape:connector-curvature="0"
   style="fill:#5ea0ef;stroke:none;stroke-width:34;stroke-linecap:butt" />
				</g>
				<g
   id="shape13604-19"
   transform="translate(25.1969)">
					<title
   id="title51">path24</title>
					<path
   d="m 21.04,121.87 a 2.04724,2.08878 -180 0 0 2.08,-2.12 V 119.5 C 22.3,112.91 18.61,107.51 11.56,107.51 4.5,107.51 0.69,112.07 0,119.53 a 2.04724,2.08878 -180 0 0 1.83,2.31 h 19.24 z"
   class="st7"
   id="path53"
   inkscape:connector-curvature="0"
   style="fill:#a67af4;stroke:none;stroke-width:34;stroke-linecap:butt" />
				</g>
				<g
   id="shape13605-21"
   transform="translate(33.3543,-4.43463)">
					<title
   id="title56">path26</title>
					<path
   d="M 3.5,113.52 A 6.29921,6.427 0 0 1 0,112.46 l 3.46,9.41 3.47,-9.22 a 6.29921,6.427 0 0 1 -3.43,0.87 z"
   class="st8"
   id="path58"
   inkscape:connector-curvature="0"
   style="fill:#ffffff;fill-opacity:0.8;stroke:none;stroke-width:34;stroke-linecap:butt" />
				</g>
				<g
   id="shape13606-23"
   transform="translate(30.3307,-12.7897)">
					<title
   id="title61">circle28</title>
					<ellipse
   cx="6.4881902"
   cy="115.254"
   rx="6.4881902"
   ry="6.6198101"
   class="st7"
   id="ellipse63"
   style="fill:#a67af4;stroke:none;stroke-width:34;stroke-linecap:butt" />
				</g>
			</g>
		</g>
	</g>
</svg>

<?xml version="1.0" encoding="UTF-8" standalone="no"?>
<!DOCTYPE svg PUBLIC "-//W3C//DTD SVG 1.1//EN" "http://www.w3.org/Graphics/SVG/1.1/DTD/svg11.dtd">
<!-- Generated by Microsoft Visio, SVG Export Azure AD B2C.svg Page-1 -->
<svg xmlns="http://www.w3.org/2000/svg" xmlns:xlink="http://www.w3.org/1999/xlink" xmlns:ev="http://www.w3.org/2001/xml-events"
		width="1.73185in" height="1.69269in" viewBox="0 0 124.693 121.874" xml:space="preserve" color-interpolation-filters="sRGB"
		class="st9">
	<style type="text/css">
	<![CDATA[
		.st1 {fill:#50e6ff;stroke:none;stroke-linecap:butt;stroke-width:34}
		.st2 {fill:#ffffff;stroke:none;stroke-linecap:butt;stroke-width:34}
		.st3 {fill:url(#grad0-12);stroke:none;stroke-linecap:butt;stroke-width:34}
		.st4 {fill:#53b1e0;stroke:none;stroke-linecap:butt;stroke-width:34}
		.st5 {fill:#9cebff;stroke:none;stroke-linecap:butt;stroke-width:34}
		.st6 {fill:#5ea0ef;stroke:none;stroke-linecap:butt;stroke-width:34}
		.st7 {fill:#a67af4;stroke:none;stroke-linecap:butt;stroke-width:34}
		.st8 {fill:#ffffff;fill-opacity:0.8;stroke:none;stroke-linecap:butt;stroke-width:34}
		.st9 {fill:none;fill-rule:evenodd;font-size:12px;overflow:visible;stroke-linecap:square;stroke-miterlimit:3}
	]]>
	</style>

	<defs id="Patterns_And_Gradients">
		<linearGradient id="grad0-12" x1="0" y1="0" x2="1" y2="0" gradientTransform="rotate(-133.56955780834 0.5 0.5)">
			<stop offset="0" stop-color="#1988d9" stop-opacity="1"/>
			<stop offset="0.9" stop-color="#54aef0" stop-opacity="1"/>
		</linearGradient>
	</defs>
	<g>
		<title>Page-1</title>
		<g id="group13248-1" transform="translate(34,-34.0157)">
			<title>Azure AD B2C.13248</title>
			<g id="group13249-2">
				<title>Icon-identity-228</title>
				<g id="shape13250-3" transform="translate(0,-1.189)">
					<title>path4</title>
					<path d="M3.18 99.38 L28.13 115.86 L53.51 99.32 L56.69 103.08 L28.13 121.87 L0 103.11 L3.18 99.38 Z"
							class="st1"/>
				</g>
				<g id="shape13251-5" transform="translate(5.07087,-10.6046)">
					<title>path6</title>
					<path d="M0 106.67 L23.06 78.62 L46.58 106.71 L23.06 121.87 L0 106.67 Z" class="st2"/>
				</g>
				<g id="shape13252-7" transform="translate(5.07087,-10.6046)">
					<title>path8</title>
					<path d="M23.06 78.62 L23.06 121.87 L0 106.67 L23.06 78.62 Z" class="st1"/>
				</g>
				<g id="shape13253-9" transform="translate(28.126,-10.6046)">
					<title>path10</title>
					<path d="M0 78.62 L0 121.87 L23.53 106.71 L0 78.62 Z" class="st3"/>
				</g>
				<g id="shape13254-13" transform="translate(28.126,-10.6046)">
					<title>path12</title>
					<path d="M0 100.95 L23.53 106.71 L0 121.87 L0 100.95 Z" class="st4"/>
				</g>
				<g id="shape13255-15" transform="translate(5.07087,-10.6046)">
					<title>path14</title>
					<path d="M23.06 121.87 L0 106.67 L23.06 100.95 L23.06 121.87 Z" class="st5"/>
				</g>
				<g id="shape13256-17" transform="translate(28.126,-1.189)">
					<title>path16</title>
					<path d="M0 121.87 L28.57 103.08 L25.39 99.32 L0 115.86 L0 121.87 Z" class="st6"/>
				</g>
				<g id="shape13257-19" transform="translate(25.1969,0)">
					<title>path24</title>
					<path d="M21.04 121.87 A2.04724 2.08878 -180 0 0 23.12 119.75 L23.12 119.5 C22.3 112.91 18.61 107.51 11.56 107.51
								 C4.5 107.51 0.69 112.07 0 119.53 A2.04724 2.08878 -180 0 0 1.83 121.84 L21.07 121.84 L21.04 121.87
								 Z" class="st7"/>
				</g>
				<g id="shape13258-21" transform="translate(33.3543,-4.43463)">
					<title>path26</title>
					<path d="M3.5 113.52 A6.29921 6.427 0 0 1 -0 112.46 L3.46 121.87 L6.93 112.65 A6.29921 6.427 0 0 1 3.5 113.52
								 Z" class="st8"/>
				</g>
				<g id="shape13259-23" transform="translate(30.3307,-12.7897)">
					<title>circle28</title>
					<ellipse cx="6.48819" cy="115.254" rx="6.48819" ry="6.61981" class="st7"/>
				</g>
			</g>
		</g>
	</g>
</svg>
